projects/js-packages/social-logos/src/svg/linkedin.svg

<svg enable-background="new 0 0 24 24" viewBox="0 0 24 24" xmlns="http://www.w3.org/2000/svg"><path d="m19.7 3h-15.4c-.718 0-1.3.582-1.3 1.3v15.4c0 .718.582 1.3 1.3 1.3h15.4c.718 0 1.3-.582 1.3-1.3v-15.4c0-.718-.582-1.3-1.3-1.3zm-11.361 15.338h-2.672v-8.59h2.672zm-1.335-9.764c-.857 0-1.549-.694-1.549-1.548 0-.855.691-1.548 1.549-1.548.854 0 1.547.694 1.547 1.548 0 .855-.693 1.548-1.547 1.548zm11.335 9.764h-2.669v-4.177c0-.996-.017-2.278-1.387-2.278-1.389 0-1.601 1.086-1.601 2.206v4.249h-2.667v-8.59h2.559v1.174h.037c.356-.675 1.227-1.387 2.526-1.387 2.703 0 3.203 1.779 3.203 4.092v4.711z"/></svg>

<?xml version="1.0" encoding="iso-8859-1"?>
<!-- Generator: Adobe Illustrator 19.2.1, SVG Export Plug-In . SVG Version: 6.00 Build 0)  -->
<svg version="1.1" xmlns="http://www.w3.org/2000/svg" xmlns:xlink="http://www.w3.org/1999/xlink" x="0px" y="0px"
	 viewBox="0 0 24 24" style="enable-background:new 0 0 24 24;" xml:space="preserve">
<g id="linkedin">
	<path d="M19.7,3H4.3C3.582,3,3,3.582,3,4.3v15.4C3,20.418,3.582,21,4.3,21h15.4c0.718,0,1.3-0.582,1.3-1.3V4.3
		C21,3.582,20.418,3,19.7,3z M8.339,18.338H5.667v-8.59h2.672V18.338z M7.004,8.574c-0.857,0-1.549-0.694-1.549-1.548
		c0-0.855,0.691-1.548,1.549-1.548c0.854,0,1.547,0.694,1.547,1.548C8.551,7.881,7.858,8.574,7.004,8.574z M18.339,18.338h-2.669
		v-4.177c0-0.996-0.017-2.278-1.387-2.278c-1.389,0-1.601,1.086-1.601,2.206v4.249h-2.667v-8.59h2.559v1.174h0.037
		c0.356-0.675,1.227-1.387,2.526-1.387c2.703,0,3.203,1.779,3.203,4.092V18.338z"/>
</g>
<g id="Layer_1">
</g>
</svg>
